docs/inc/icons/book.svg

<svg height="16" viewBox="0 0 16 16" width="16" xmlns="http://www.w3.org/2000/svg"><path d="m3 5h4v1h-4zm0 3h4v-1h-4zm0 2h4v-1h-4zm11-5h-4v1h4zm0 2h-4v1h4zm0 2h-4v1h4zm2-6v9c0 .55-.45 1-1 1h-5.5l-1 1-1-1h-5.5c-.55 0-1-.45-1-1v-9c0-.55.45-1 1-1h5.5l1 1 1-1h5.5c.55 0 1 .45 1 1zm-8 .5-.5-.5h-5.5v9h6zm7-.5h-5.5l-.5.5v8.5h6z" fill-rule="evenodd"/></svg>

<svg xmlns="http://www.w3.org/2000/svg" width="16" height="16" viewBox="0 0 16 16"><path fill-rule="evenodd" d="M3 5h4v1H3V5zm0 3h4V7H3v1zm0 2h4V9H3v1zm11-5h-4v1h4V5zm0 2h-4v1h4V7zm0 2h-4v1h4V9zm2-6v9c0 .55-.45 1-1 1H9.5l-1 1-1-1H2c-.55 0-1-.45-1-1V3c0-.55.45-1 1-1h5.5l1 1 1-1H15c.55 0 1 .45 1 1zm-8 .5L7.5 3H2v9h6V3.5zm7-.5H9.5l-.5.5V12h6V3z"/></svg>
